build/category/AnchorSolid.svg

<svg xmlns="http://www.w3.org/2000/svg" fill="none" viewBox="0 0 24 24" focusable="false"><path d="M0 0H24V24H0z"/><path fill="#74767B" fill-rule="evenodd" d="M21 12C21 16.9706 16.9706 21 12 21C7.02944 21 3 16.9706 3 12C3 7.02944 7.02944 3 12 3C16.9706 3 21 7.02944 21 12ZM14 6.49913C14 7.38137 13.4288 8.13019 12.636 8.39589L12.636 9.68207L14.302 9.68207C14.661 9.68207 14.952 9.97309 14.952 10.3321C14.952 10.6911 14.661 10.9821 14.302 10.9821L12.636 10.9821L12.636 17.6831C15.476 17.3872 17.6292 15.1339 17.6292 12.4706L17.6292 12.1656L16.2932 13.42C16.0315 13.6657 15.6201 13.6527 15.3744 13.391C15.1287 13.1292 15.1417 12.7179 15.4034 12.4722L17.8344 10.19C18.0233 10.0126 18.2996 9.96437 18.5374 10.0673C18.7753 10.1703 18.9292 10.4047 18.9292 10.6638L18.9292 12.4706C18.9292 16.1236 15.7875 19.016 11.9997 19.016C8.21192 19.016 5.0702 16.1236 5.0702 12.4706L5.0702 10.6638C5.0702 10.4047 5.22416 10.1703 5.46201 10.0673C5.69986 9.96437 5.97614 10.0126 6.16509 10.19L8.59604 12.4722C8.85776 12.7179 8.87074 13.1292 8.62503 13.391C8.37932 13.6527 7.96797 13.6657 7.70625 13.42L6.3702 12.1656L6.3702 12.4706C6.3702 15.1253 8.50958 17.3726 11.336 17.6801L11.336 10.9821L9.66957 10.9821C9.31059 10.9821 9.01957 10.6911 9.01957 10.3321C9.01957 9.97309 9.31059 9.68207 9.66957 9.68207L11.336 9.68207L11.336 8.38626C10.5578 8.11245 10 7.37093 10 6.49913C10 5.39456 10.8954 4.49913 12 4.49913C13.1046 4.49913 14 5.39456 14 6.49913ZM12.7 6.49913C12.7 6.88573 12.3866 7.19913 12 7.19913C11.6134 7.19913 11.3 6.88573 11.3 6.49913C11.3 6.11253 11.6134 5.79913 12 5.79913C12.3866 5.79913 12.7 6.11253 12.7 6.49913Z"/></svg>

<svg xmlns="http://www.w3.org/2000/svg" fill="none" viewBox="0 0 24 24" focusable="false"><path fill="#74767B" fill-rule="evenodd" d="M21 12a9 9 0 0 1-9 9c-4.98 0-9-4.03-9-9 0-4.98 4.02-9 9-9 4.97 0 9 4.02 9 9m-7-5.51c0 .89-.58 1.64-1.37 1.9v1.29h1.67c.36 0 .65.29.65.65s-.29.65-.65.65h-1.67v6.7c2.84-.3 4.99-2.55 4.99-5.21v-.31l-1.33 1.26c-.26.24-.67.23-.92-.03a.65.65 0 0 1 .03-.92l2.43-2.29c.19-.17.46-.22.7-.12.24.11.39.34.39.6v1.81c0 3.65-3.14 6.54-6.93 6.54-3.78 0-6.92-2.89-6.92-6.54v-1.81c0-.26.15-.49.39-.6.23-.1.51-.05.7.12l2.43 2.29c.26.24.28.65.03.92-.25.26-.66.27-.92.03l-1.33-1.26v.31c0 2.65 2.13 4.9 4.96 5.21v-6.7H9.66c-.35 0-.65-.29-.65-.65s.3-.65.65-.65h1.67v-1.3A1.985 1.985 0 0 1 10 6.49a2 2 0 1 1 4 0m-1.3 0c0 .39-.32.7-.7.7-.39 0-.7-.31-.7-.7 0-.38.31-.7.7-.7.38 0 .7.32.7.7"/></svg>
